X:1
T:Title
%%score ( 1 2 ) { 3 | 4 }
L:1/8
M:4/4
K:D
V:1 treble nm="Grand Piano"
V:2 treble 
V:3 treble nm="Grand Piano"
V:4 bass 
V:1
 z4 z2[Q:1/4=100] [DF][EG] | [FA][FA][=F^G][^FA] [Fd]2 [DF]>[=GB] |[M:3/4] A2- [DA-]>[GA-] [FA]2 | %3
[M:1/4] [Fd][Fe] |[M:4/4] [Gd][Gc] [Gc]>[GB] [Gc]2 [GA]>[Ge] |[M:3/4] d2- [Dd-]>[Gd-] [Fd]2 | %6
[M:1/4] [DF][EG] |[M:4/4] [FA][FA][=F^G][^FA] [Fd]2 [DF]>[=GB] |[M:3/4] A2- [DA-]>[GA-] [FA]2 | %9
[M:1/4] [Fd][Fe] |[M:4/4] [Gd][Gc] [Gc]>[GB] [Gc]2 [GA]>[Ge] |[M:3/4] d2- [Dd-]>[Gd-] [Fd]2 | %12
[M:1/4] [Fd]>[FA] |[M:4/4] [GB]6 [Gc]>[Ge] | [FA]6 [GB][FA] | [FA][EG] [EG]>[^DF] [EG]2 [Ac]>[GB] | %16
 z2 A4 z2 | [GB]6 [Gc]>[Ge] | [FA]6 [Fd][Fe] | [Gd][Gc] [Gc]>[GB] [Gc]2 [GA]>[Ge] | %20
[M:7/8] d2- [Dd-]>[Gd-] [Fd]3 |] %21
V:2
 x8 | x8 |[M:3/4] F2 z2 z2 |[M:1/4] x2 |[M:4/4] x8 |[M:3/4] F2 z2 z2 |[M:1/4] x2 |[M:4/4] x8 | %8
[M:3/4] F2 z2 z2 |[M:1/4] x2 |[M:4/4] x8 |[M:3/4] F2 z2 z2 |[M:1/4] x2 |[M:4/4] x8 | x8 | x8 | %16
 [FA]2 z z/ G/ F2 [Fd]>[FA] | x8 | x8 | x8 |[M:7/8] F2 z z z z2 |] %21
V:3
 z4 z2 A,A, | DDDD[K:bass] A,2 A,>D |[M:3/4] D2 F,>B, A,2 |[M:1/4] A,A, | %4
[M:4/4] A,[K:treble]E E>D E2 C>[K:bass]A, |[M:3/4] A,2 F,>B, A,2 |[M:1/4] A,A, | %7
[M:4/4][K:treble] DDDD A,2 A,>D |[M:3/4] D2[K:bass] F,>B, A,2 |[M:1/4] A,A, | %10
[M:4/4] A,[K:treble]E E>D E2 C>[K:bass]A, |[M:3/4] A,2 F,>B, A,2 |[M:1/4] z2 | %13
[M:4/4] z2[K:treble] D>D D2 z2 | z2 D>D D2 DD | D[K:bass]A, A,>A, A,2 A,>[K:treble]A, | %16
 D2 C>B, A,2 z2 | z2 D>D D2 z2 | z2 D>D D2 A,A, | A,E E>D E2 C>[K:bass]A, |[M:7/8] A,2 F,>B, A,3 |] %21
V:4
 z4 z2 D,D, | D,D,D,D, D,2 D,>D, |[M:3/4] D,6 |[M:1/4] D,D, |[M:4/4] E,A, A,>A, A,2 A,2 | %5
[M:3/4] D,6 |[M:1/4] D,D, |[M:4/4] D,D,D,D, D,2 D,>D, |[M:3/4] D,6 |[M:1/4] D,D, | %10
[M:4/4] E,A, A,>A, A,2 A,2 |[M:3/4] D,6 |[M:1/4] z2 |[M:4/4] z2 G,>G, G,2 z2 | z2 D,>D, D,2 D,D, | %15
 A,,A,, A,,>A,, A,,2 A,,>C, | D,6 z2 | z2 G,>G, G,2 z2 | z2 D,>D, D,2 D,D, | E,A, A,>A, A,2 A,2 | %20
[M:7/8] D,-D,-D,- D,- D,3 |] %21

